gama.ui.shared/icons_svg/dark/views/open.interactive.console.svg

<svg height="25" viewBox="-598.483 -3025.285 25 25" width="25" xmlns="http://www.w3.org/2000/svg"><g fill="none"><path d="m-594.14276-3024.7847h16.32c2.12076 0 3.84 1.7192 3.84 3.84v16.32c0 2.1207-1.71924 3.84-3.84 3.84h-16.32c-2.12074 0-3.84-1.7193-3.84-3.84v-16.32c0-2.1208 1.71926-3.84 3.84-3.84z" fill="#666"/><path d="m-594.14276-3024.7847h16.32c2.12076 0 3.84 1.7192 3.84 3.84v16.32c0 2.1207-1.71924 3.84-3.84 3.84h-16.32c-2.12074 0-3.84-1.7193-3.84-3.84v-16.32c0-2.1208 1.71926-3.84 3.84-3.84z" stroke="#fff" stroke-linecap="round" stroke-linejoin="round" stroke-width=".25"/><path d="m-590.9505-3010.353c.104-.032.216-.016.312.04.79994.472 1.7039.728 2.65585.728 2.87185 0 5.19975-2.328 5.19975-5.2 0-2.8717-2.3279-5.1996-5.19975-5.1996s-5.19975 2.3279-5.19975 5.1996c0 .944.256 1.856.728 2.656.056.096.072.208.04.312l-.584 2.048zm8.71155-6.1758c2.50385.76 4.25575 3.0798 4.25575 5.7438 0 1.032-.26396 2.032-.7519 2.9118l.7359 2.5759c.088.3039-.19196.5839-.49594.4959l-2.57586-.7359c-.88.4879-1.8799.7519-2.91186.7519-2.66384 0-4.98374-1.7519-5.7437-4.2556-.40798-.12-.79994-.288-1.16794-.496l-2.5759.736c-.30396.088-.58394-.192-.49595-.496l.73595-2.576c-.48796-.88-.75194-1.88-.75194-2.912 0-3.3117 2.68784-5.9995 5.99969-5.9995 2.70385 0 4.99975 1.7919 5.7437 4.2557zm.19999.92c.04.2718.056.5438.056.8238 0 3.312-2.68784 6-5.99969 6-.27999 0-.55195-.016-.82395-.056.78395 1.9357 2.67185 3.2557 4.82374 3.2557.94396 0 1.8559-.256 2.65586-.728.096-.056.208-.072.312-.04l2.0479.584-.584-2.0479c-.032-.104-.016-.216.04-.312.472-.7998.728-1.7038.728-2.6558 0-2.152-1.31996-4.048-3.25586-4.8238z" fill="#c0e0ff"/></g></svg>

<?xml version="1.0" encoding="UTF-8" standalone="no"?>
<!DOCTYPE svg PUBLIC "-//W3C//DTD SVG 1.1//EN" "http://www.w3.org/Graphics/SVG/1.1/DTD/svg11.dtd">
<svg xmlns="http://www.w3.org/2000/svg" xmlns:xl="http://www.w3.org/1999/xlink" version="1.1" xmlns:dc="http://purl.org/dc/elements/1.1/" viewBox="-598.48276 -3025.2847 25 25.000004" width="25" height="25.000004">
  <defs/>
  <g id="SOURCES" stroke-opacity="1" fill="none" stroke="none" fill-opacity="1" stroke-dasharray="none">
    <title>SOURCES</title>
    <g id="SOURCES_Dark">
      <title>Dark</title>
      <g id="Graphic_11083">
        <path d="M -594.14276 -3024.7847 L -577.82276 -3024.7847 C -575.702 -3024.7847 -573.98276 -3023.0655 -573.98276 -3020.9447 L -573.98276 -3004.6247 C -573.98276 -3002.504 -575.702 -3000.7847 -577.82276 -3000.7847 L -594.14276 -3000.7847 C -596.2635 -3000.7847 -597.98276 -3002.504 -597.98276 -3004.6247 L -597.98276 -3020.9447 C -597.98276 -3023.0655 -596.2635 -3024.7847 -594.14276 -3024.7847 Z" fill="#666"/>
        <path d="M -594.14276 -3024.7847 L -577.82276 -3024.7847 C -575.702 -3024.7847 -573.98276 -3023.0655 -573.98276 -3020.9447 L -573.98276 -3004.6247 C -573.98276 -3002.504 -575.702 -3000.7847 -577.82276 -3000.7847 L -594.14276 -3000.7847 C -596.2635 -3000.7847 -597.98276 -3002.504 -597.98276 -3004.6247 L -597.98276 -3020.9447 C -597.98276 -3023.0655 -596.2635 -3024.7847 -594.14276 -3024.7847 Z" stroke="white" stroke-linecap="round" stroke-linejoin="round" stroke-width=".25"/>
      </g>
      <g id="Graphic_11082">
        <path d="M -590.9505 -3010.353 C -590.8465 -3010.385 -590.7345 -3010.369 -590.6385 -3010.313 C -589.83856 -3009.841 -588.9346 -3009.585 -587.98265 -3009.585 C -585.1108 -3009.585 -582.7829 -3011.913 -582.7829 -3014.785 C -582.7829 -3017.6567 -585.1108 -3019.9846 -587.98265 -3019.9846 C -590.8545 -3019.9846 -593.1824 -3017.6567 -593.1824 -3014.785 C -593.1824 -3013.841 -592.9264 -3012.929 -592.4544 -3012.129 C -592.3984 -3012.033 -592.3824 -3011.921 -592.4144 -3011.817 L -592.9984 -3009.769 Z M -582.23895 -3016.5288 C -579.7351 -3015.7688 -577.9832 -3013.449 -577.9832 -3010.785 C -577.9832 -3009.753 -578.24716 -3008.753 -578.7351 -3007.8732 L -577.9992 -3005.2973 C -577.9112 -3004.9934 -578.19116 -3004.7134 -578.49514 -3004.8014 L -581.071 -3005.5373 C -581.951 -3005.0494 -582.9509 -3004.7854 -583.98286 -3004.7854 C -586.6467 -3004.7854 -588.9666 -3006.5373 -589.72656 -3009.041 C -590.13454 -3009.161 -590.5265 -3009.329 -590.8945 -3009.537 L -593.4704 -3008.801 C -593.77436 -3008.713 -594.05434 -3008.993 -593.96635 -3009.297 L -593.2304 -3011.873 C -593.71836 -3012.753 -593.98234 -3013.753 -593.98234 -3014.785 C -593.98234 -3018.0967 -591.2945 -3020.7845 -587.98265 -3020.7845 C -585.2788 -3020.7845 -582.9829 -3018.9926 -582.23895 -3016.5288 Z M -582.03896 -3015.6088 C -581.99896 -3015.337 -581.98296 -3015.065 -581.98296 -3014.785 C -581.98296 -3011.473 -584.6708 -3008.785 -587.98265 -3008.785 C -588.26264 -3008.785 -588.5346 -3008.801 -588.8066 -3008.841 C -588.02265 -3006.9053 -586.13475 -3005.5853 -583.98286 -3005.5853 C -583.0389 -3005.5853 -582.12696 -3005.8413 -581.327 -3006.3133 C -581.231 -3006.3693 -581.119 -3006.3853 -581.015 -3006.3533 L -578.9671 -3005.7693 L -579.5511 -3007.8172 C -579.5831 -3007.9212 -579.5671 -3008.0332 -579.5111 -3008.1292 C -579.0391 -3008.929 -578.7831 -3009.833 -578.7831 -3010.785 C -578.7831 -3012.937 -580.10306 -3014.833 -582.03896 -3015.6088 Z" fill="#c0e0ff"/>
      </g>
    </g>
  </g>
</svg>
